X:132
T:John Joe Hartnett's
R:slide
D:\'Eamonn O'Riordan & Tony O'Connell: Rooska Hill
Z:id:hn-slide-132
M:6/8
L:1/8
K:D
~A3 BAB | d2e fed | ~e3 fed | e2d B/c/dB |
AFA BAB | d2e fed | efa fed |1 e3 edB :|2 e3 efg ||
|: a2f d2e | f2g a2f | b2g b2g | b2g b2g |
a2f g2e | f2d eB/c/d | ~e3 fed |1 e3 efg :|2 e2d B/c/dB ||

